obscura-ui/src/res/deco/deco-disconnected-light.svg

<svg xmlns="http://www.w3.org/2000/svg" xml:space="preserve" style="fill-rule:evenodd;clip-rule:evenodd;stroke-linejoin:round;stroke-miterlimit:2" viewBox="0 0 660 132"><path d="M79 985h660v132H79z" style="fill:none" transform="translate(-79 -985)"/><path d="M396 132V96h12v12h12v24h-24ZM48 12v12H36V12h12Zm0 0V0h12v12H48Zm180 72h-12V72h12v12Zm0 0h12v12h-12V84Zm144 12V84h12v12h-12Zm-24 24h12V96h12v24h12v12h-36v-12Zm-108 12v-24h12V96h24v12h-12v12h24V96h12v24h12v12h-72Zm36-36V84h12v12h-12Zm36 24V84h12v24h12V84h12v36h-12v12h-12v-12h-12ZM12 36H0V24h24v12h12v24h12v12H36v12h12V72h24V60h12V48H72v12H48V48h12V36h24V24H72V0h12v12h24v12h12v12h-12v12h12v12H96v24h24V60h12V36h12v12h12v12h12v24h36v12h-12v12h24v12h12v12h-24v-12h-12v12H84v-12H72v12H48v-12h12v-12h24V96H24v12h12v24H0v-12h12v-12H0V48h12V36Zm132 84h24v-12h-12V96h-36v12h-12v12h24v-12h12v12Zm432-84h-12V24h12v12Zm0 0h12v12h-12V36ZM432 96h-12V84h12v12Zm216-48V36h12v12h-12Zm-204 60h12V84h-12V72h12V60h12v12h12V60h12v24h12v24h24V84h-24V72h12V60h-12V48h12V36h24V12h12v36h-12v12h24v12h12v12h12V60h12V48h24v12h-12v12h24V48h12v12h12v60h-12v12h-24v-12h-12v12h-96v-12h-12v12h-36v-12h-12v12h-24v-12h12v-12Zm180-60V36h12v12h-12Zm-72 24h-12v24h24V84h-12V72Zm24 48h12v-12h-12v12Zm60-12V96h-12v12h12ZM432 96h12v12h-12V96Zm-36-24h12v12h-12V72ZM12 0h12v12H12V0Zm192 60v12h-12V60h12Zm60 12v12h-12V72h12Zm348-48v12h-12V24h12Z" style="fill:#c7ccce"/></svg>

<?xml version="1.0" encoding="UTF-8" standalone="no"?>
<!DOCTYPE svg PUBLIC "-//W3C//DTD SVG 1.1//EN" "http://www.w3.org/Graphics/SVG/1.1/DTD/svg11.dtd">
<svg width="100%" height="100%" viewBox="0 0 660 132" version="1.1" xmlns="http://www.w3.org/2000/svg" xmlns:xlink="http://www.w3.org/1999/xlink" xml:space="preserve" xmlns:serif="http://www.serif.com/" style="fill-rule:evenodd;clip-rule:evenodd;stroke-linejoin:round;stroke-miterlimit:2;">
    <g transform="matrix(1,0,0,1,-3,-222)">
        <g id="Disconnected" transform="matrix(1,0,0,1,-76,-763)">
            <rect x="79" y="985" width="660" height="132" style="fill:none;"/>
            <g transform="matrix(1,0,0,1,79,985)">
                <path d="M396,132L396,96L408,96L408,108L420,108L420,132L396,132ZM48,12L48,24L36,24L36,12L48,12ZM48,12L48,0L60,0L60,12L48,12ZM228,84L216,84L216,72L228,72L228,84ZM228,84L240,84L240,96L228,96L228,84ZM372,96L372,84L384,84L384,96L372,96ZM348,120L360,120L360,96L372,96L372,120L384,120L384,132L348,132L348,120ZM240,132L240,108L252,108L252,96L276,96L276,108L264,108L264,120L288,120L288,96L300,96L300,120L312,120L312,132L240,132ZM276,96L276,84L288,84L288,96L276,96ZM312,120L312,84L324,84L324,108L336,108L336,84L348,84L348,120L336,120L336,132L324,132L324,120L312,120ZM12,36L0,36L0,24L24,24L24,36L36,36L36,60L48,60L48,72L36,72L36,84L48,84L48,72L72,72L72,60L84,60L84,48L72,48L72,60L48,60L48,48L60,48L60,36L84,36L84,24L72,24L72,0L84,0L84,12L108,12L108,24L120,24L120,36L108,36L108,48L120,48L120,60L96,60L96,84L120,84L120,60L132,60L132,36L144,36L144,48L156,48L156,60L168,60L168,84L204,84L204,96L192,96L192,108L216,108L216,120L228,120L228,132L204,132L204,120L192,120L192,132L84,132L84,120L72,120L72,132L48,132L48,120L60,120L60,108L84,108L84,96L24,96L24,108L36,108L36,132L0,132L0,120L12,120L12,108L0,108L0,48L12,48L12,36ZM144,120L168,120L168,108L156,108L156,96L120,96L120,108L108,108L108,120L132,120L132,108L144,108L144,120ZM576,36L564,36L564,24L576,24L576,36ZM576,36L588,36L588,48L576,48L576,36ZM432,96L420,96L420,84L432,84L432,96ZM648,48L648,36L660,36L660,48L648,48ZM444,108L456,108L456,84L444,84L444,72L456,72L456,60L468,60L468,72L480,72L480,60L492,60L492,84L504,84L504,108L528,108L528,84L504,84L504,72L516,72L516,60L504,60L504,48L516,48L516,36L540,36L540,12L552,12L552,48L540,48L540,60L564,60L564,72L576,72L576,84L588,84L588,60L600,60L600,48L624,48L624,60L612,60L612,72L636,72L636,48L648,48L648,60L660,60L660,120L648,120L648,132L624,132L624,120L612,120L612,132L516,132L516,120L504,120L504,132L468,132L468,120L456,120L456,132L432,132L432,120L444,120L444,108ZM624,48L624,36L636,36L636,48L624,48ZM552,72L540,72L540,96L564,96L564,84L552,84L552,72ZM576,120L588,120L588,108L576,108L576,120ZM636,108L636,96L624,96L624,108L636,108ZM432,96L444,96L444,108L432,108L432,96ZM396,72L408,72L408,84L396,84L396,72ZM12,0L24,0L24,12L12,12L12,0ZM204,60L204,72L192,72L192,60L204,60ZM264,72L264,84L252,84L252,72L264,72ZM612,24L612,36L600,36L600,24L612,24Z" style="fill:rgb(199,204,206);"/>
            </g>
        </g>
    </g>
</svg>
